X: 9409
T: Daniel Of The Sun
R: jig
M: 6/8
K: Gmajor
D|~G3 AGA|B/c/dg dBA|BcB B2A|BcB B2A|
DGG AGA|Bdg dBG|ABA A2D|ABA A2:|:d|
g2g faf|fge dBA|BcB B2A|BcB B2d|
1~g3 faf|fge dBG|ABA A2D|ABA A2:|
2g2g aga|bge dBG|ABA A2D|ABA2|

